src/assets/pastebinIcon.svg

<svg width="24" height="24" viewBox="0 0 24 24" fill="none" xmlns="http://www.w3.org/2000/svg">
<g clip-path="url(#clip0)">
<path d="M17.0201 -1.14921e-05C16.774 -0.00170301 16.5296 0.0399325 16.2981 0.122989L2.62406 5.00299C2.36376 5.09546 2.12426 5.23838 1.91928 5.42356C1.71431 5.60874 1.54788 5.83254 1.42953 6.08215C1.31119 6.33175 1.24325 6.60225 1.22961 6.87815C1.21597 7.15405 1.2569 7.42993 1.35006 7.68999L6.67406 22.605C6.86146 23.1297 7.24962 23.5585 7.75314 23.797C8.25667 24.0356 8.83432 24.0643 9.35906 23.877L17.1051 21.112C17.8971 20.805 18.4501 20.578 18.5691 20.504C19.1121 20.19 19.5311 19.687 20.5331 18.17C21.4371 16.808 22.3921 14.847 22.6301 13.89C22.8701 12.92 22.8691 12.41 22.1281 10.216L18.9821 1.39599C18.8374 0.990329 18.5717 0.638886 18.2208 0.389206C17.8699 0.139526 17.4507 0.0036597 17.0201 -1.14921e-05V-1.14921e-05ZM16.9371 0.413989C17.6571 0.382989 18.3371 0.816989 18.5941 1.53399L22.2741 11.891C22.3771 12.324 21.9931 13.038 21.5381 13.241C21.3381 13.341 20.8281 13.534 20.3961 13.67C18.9991 14.133 18.3461 14.548 17.9381 15.217C17.5751 15.808 17.6231 16.397 18.0981 17.594C18.5601 18.736 18.6311 19.458 18.3231 19.994C18.2101 20.182 18.0221 20.316 16.9691 20.727L16.9671 20.722L9.22106 23.487C9.0124 23.5626 8.79082 23.5961 8.56914 23.5856C8.34746 23.575 8.13006 23.5207 7.9295 23.4256C7.72895 23.3306 7.5492 23.1968 7.40066 23.0319C7.25211 22.867 7.13771 22.6743 7.06406 22.465L1.74006 7.54999C1.66447 7.34133 1.63097 7.11976 1.6415 6.89808C1.65202 6.67639 1.70637 6.45899 1.8014 6.25844C1.89642 6.05788 2.03024 5.87814 2.19513 5.72959C2.36002 5.58104 2.5527 5.46664 2.76206 5.39299L16.4371 0.512989C16.6021 0.452989 16.7711 0.420989 16.9371 0.413989V0.413989ZM15.9001 2.24999L14.6971 3.13499L14.8841 3.65399L15.4071 3.33799L16.2101 5.57299L15.5141 5.82199C15.5591 5.96699 15.7301 6.46399 15.7521 6.48599L17.9181 5.70599L17.6801 5.04399L16.9931 5.29199L15.9001 2.24999ZM12.6101 3.43199L11.4071 4.31699L11.5931 4.83599L12.1171 4.51999L12.9201 6.75499L12.2231 7.00499C12.2691 7.14899 12.4391 7.64499 12.4611 7.66799L14.6281 6.88999L14.3901 6.22699L13.7031 6.47399L12.6101 3.43199ZM9.08506 4.78599C8.80206 4.78599 8.52506 4.86199 8.28506 5.00899C7.55306 5.45699 7.43506 6.39199 7.95306 7.56699C8.29006 8.34299 8.82606 8.78499 9.41506 8.78199C10.7601 8.77499 11.2751 7.38199 10.5001 5.83199C10.1931 5.17199 9.66306 4.79599 9.08506 4.78599ZM8.89406 5.45799C9.06206 5.44799 9.25106 5.54299 9.43306 5.73699C9.57806 5.89199 9.78006 6.24699 9.87006 6.52399C10.2201 7.52199 10.0341 8.21199 9.45606 8.06999C8.85506 7.92999 8.21006 5.99999 8.62006 5.58499C8.69148 5.50931 8.78917 5.46387 8.89306 5.45799H8.89406ZM5.12906 6.20799C4.84606 6.20799 4.56906 6.28399 4.32906 6.43099C3.59706 6.87899 3.47906 7.81299 3.99706 8.98799C4.33406 9.76499 4.87006 10.206 5.45906 10.203C6.80306 10.196 7.31906 8.80499 6.54406 7.25299C6.23706 6.59299 5.70606 6.21699 5.12906 6.20799ZM4.93706 6.87999C5.10506 6.86999 5.29506 6.96499 5.47706 7.15799C5.62206 7.31299 5.82406 7.66799 5.91406 7.94499C6.26406 8.94399 6.07806 9.63399 5.49906 9.49199C4.89906 9.35099 4.25606 7.41999 4.66506 7.00699C4.73623 6.93154 4.83352 6.88612 4.93706 6.87999V6.87999ZM18.2991 7.53499C18.0161 7.53499 17.7391 7.61099 17.4991 7.75799C16.7671 8.20599 16.6491 9.13999 17.1671 10.316C17.5041 11.092 18.0401 11.534 18.6291 11.531C19.9741 11.524 20.4891 10.131 19.7141 8.58099C19.4071 7.92099 18.8771 7.54499 18.2991 7.53499ZM18.1081 8.20699C18.2761 8.19699 18.4651 8.29199 18.6471 8.48499C18.7921 8.63999 18.9941 8.99499 19.0841 9.27199C19.4341 10.271 19.2481 10.961 18.6701 10.819C18.0691 10.678 17.4261 8.74699 17.8351 8.33399C17.9065 8.25831 18.0042 8.21287 18.1081 8.20699V8.20699ZM14.3421 8.95699C14.06 8.95594 13.7832 9.03276 13.5421 9.17899C12.8121 9.62699 12.6941 10.562 13.2111 11.737C13.5481 12.513 14.0841 12.955 14.6731 12.952C16.0171 12.945 16.5331 11.554 15.7581 10.002C15.4511 9.34199 14.9201 8.96599 14.3421 8.95699V8.95699ZM14.1521 9.62699C14.3191 9.61899 14.5091 9.71299 14.6911 9.90699C14.8361 10.062 15.0381 10.417 15.1281 10.694C15.4781 11.692 15.2921 12.382 14.7131 12.241C14.1131 12.099 13.4691 10.169 13.8781 9.75599C13.9494 9.68003 14.0471 9.63423 14.1511 9.62799L14.1521 9.62699ZM10.4061 10.371C10.1231 10.37 9.84606 10.447 9.60606 10.594C8.87406 11.042 8.75606 11.976 9.27406 13.151C9.61106 13.928 10.1471 14.369 10.7361 14.366C12.0811 14.359 12.5961 12.968 11.8211 11.416C11.5141 10.756 10.9831 10.38 10.4061 10.371V10.371ZM10.2141 11.043C10.3831 11.033 10.5721 11.128 10.7541 11.321C10.8991 11.476 11.1011 11.831 11.1911 12.108C11.5411 13.107 11.3551 13.797 10.7771 13.655C10.1761 13.514 9.53306 11.583 9.94206 11.17C10.0132 11.0945 10.1105 11.0491 10.2141 11.043V11.043ZM6.69906 11.659L5.49606 12.543L5.68306 13.063L6.20706 12.747L7.00906 14.98L6.31306 15.23C6.35806 15.375 6.52906 15.871 6.55106 15.893L8.71706 15.115L8.47906 14.452L7.79206 14.699L6.69906 11.659ZM22.3631 12.989C22.3971 12.989 22.4121 13.036 22.4271 13.124C22.4501 13.234 22.3631 13.669 22.2321 14.081C21.7621 15.516 20.1801 18.304 19.1521 19.477L18.7451 19.947L18.7951 19.28C18.8251 18.713 18.7801 18.468 18.4191 17.57C17.9231 16.307 17.8861 15.84 18.2611 15.26C18.6011 14.746 19.2891 14.353 20.7091 13.89C21.4291 13.652 21.8841 13.427 22.0941 13.226C22.2261 13.081 22.3011 13.006 22.3471 12.991C22.3519 12.9892 22.3569 12.9882 22.3621 12.988L22.3631 12.989ZM15.9331 14.465L14.7311 15.35L14.9181 15.87L15.4411 15.553L16.2441 17.788L15.5481 18.038C15.5931 18.182 15.7641 18.679 15.7861 18.701L17.9521 17.922L17.7141 17.26L17.0271 17.507L15.9341 14.465H15.9331ZM12.3551 15.795C12.0721 15.795 11.7951 15.872 11.5551 16.018C10.8241 16.466 10.7051 17.4 11.2231 18.576C11.5601 19.352 12.0961 19.794 12.6851 19.791C14.0301 19.784 14.5451 18.392 13.7711 16.841C13.4641 16.181 12.9331 15.805 12.3551 15.795V15.795ZM12.1641 16.467C12.3321 16.458 12.5221 16.552 12.7041 16.747C12.8481 16.9 13.0501 17.257 13.1411 17.533C13.4911 18.531 13.3051 19.221 12.7261 19.079C12.1261 18.939 11.4821 17.007 11.8911 16.594C11.9625 16.5183 12.0602 16.4729 12.1641 16.467V16.467ZM8.64906 17.083L7.44506 17.968L7.63206 18.488L8.15606 18.171L8.95906 20.405L8.26206 20.655C8.30706 20.8 8.47806 21.297 8.50006 21.319L10.6661 20.54L10.4281 19.877L9.74106 20.125L8.64906 17.083V17.083Z" fill="black"/>
</g>
<defs>
<clipPath id="clip0">
<rect width="24" height="24" fill="white"/>
</clipPath>
</defs>
</svg>

<svg xmlns="http://www.w3.org/2000/svg" width="24" height="24" fill="none"><g clip-path="url(#a)"><path fill="#000" d="M17.02 0c-.246-.002-.49.04-.722.123L2.624 5.003A2.1 2.1 0 0 0 1.35 7.69l5.324 14.915a2.1 2.1 0 0 0 2.685 1.272l7.746-2.765c.792-.307 1.345-.534 1.464-.608.543-.314.962-.817 1.964-2.334.904-1.362 1.86-3.323 2.097-4.28.24-.97.24-1.48-.502-3.674l-3.146-8.82A2.1 2.1 0 0 0 17.02 0m-.083.414c.72-.031 1.4.403 1.657 1.12l3.68 10.357c.103.433-.28 1.147-.736 1.35-.2.1-.71.293-1.142.429-1.397.463-2.05.878-2.458 1.547-.363.591-.315 1.18.16 2.377.462 1.142.533 1.864.225 2.4-.113.188-.3.322-1.354.733l-.002-.005-7.746 2.765a1.68 1.68 0 0 1-2.157-1.022L1.74 7.55a1.68 1.68 0 0 1 1.022-2.157L16.437.513q.25-.09.5-.099M15.9 2.25l-1.203.885.187.519.523-.316.803 2.235-.696.249c.045.145.216.642.238.664l2.166-.78-.238-.662-.687.248zm-3.29 1.182-1.203.885.186.519.524-.316.803 2.235-.697.25c.046.144.216.64.238.663l2.167-.778-.238-.663-.687.247zM9.085 4.786c-.283 0-.56.076-.8.223-.732.448-.85 1.383-.332 2.558.337.776.873 1.218 1.462 1.215 1.345-.007 1.86-1.4 1.085-2.95-.307-.66-.837-1.036-1.415-1.046m-.19.672c.167-.01.356.085.538.279.145.155.347.51.437.787.35.998.164 1.688-.414 1.546-.6-.14-1.246-2.07-.836-2.485a.4.4 0 0 1 .273-.127zm-3.766.75c-.283 0-.56.076-.8.223-.732.448-.85 1.382-.332 2.557.337.777.873 1.218 1.462 1.215 1.344-.007 1.86-1.398 1.085-2.95-.307-.66-.838-1.036-1.415-1.045m-.192.672c.168-.01.358.085.54.278.145.155.347.51.437.787.35.999.164 1.689-.415 1.547-.6-.141-1.243-2.072-.834-2.485a.4.4 0 0 1 .272-.127m13.362.655c-.283 0-.56.076-.8.223-.732.448-.85 1.382-.332 2.558.337.776.873 1.218 1.462 1.215 1.345-.007 1.86-1.4 1.085-2.95-.307-.66-.837-1.036-1.415-1.046m-.19.672c.167-.01.356.085.538.278.145.155.347.51.437.787.35.999.164 1.689-.414 1.547-.6-.141-1.244-2.072-.835-2.485a.4.4 0 0 1 .273-.127m-3.767.75a1.53 1.53 0 0 0-.8.222c-.73.448-.848 1.383-.33 2.558.336.776.872 1.218 1.461 1.215 1.344-.007 1.86-1.398 1.085-2.95-.307-.66-.838-1.036-1.416-1.045m-.19.67c.167-.008.357.086.54.28.144.155.346.51.436.787.35.998.164 1.688-.415 1.547-.6-.142-1.244-2.072-.835-2.485a.4.4 0 0 1 .273-.128zm-3.746.744a1.5 1.5 0 0 0-.8.223c-.732.448-.85 1.382-.332 2.557.337.777.873 1.218 1.462 1.215 1.345-.007 1.86-1.398 1.085-2.95-.307-.66-.838-1.036-1.415-1.045m-.192.672c.17-.01.358.085.54.278.145.155.347.51.437.787.35.999.164 1.689-.414 1.547-.6-.141-1.244-2.072-.835-2.485a.4.4 0 0 1 .272-.127m-3.515.616-1.203.884.187.52.524-.316.802 2.233-.696.25c.045.145.216.641.238.663l2.166-.778-.238-.663-.687.247zm15.664 1.33c.034 0 .05.047.064.135.023.11-.064.545-.195.957-.47 1.435-2.052 4.223-3.08 5.396l-.407.47.05-.667c.03-.567-.015-.812-.376-1.71-.496-1.263-.533-1.73-.158-2.31.34-.514 1.028-.907 2.448-1.37.72-.238 1.175-.463 1.385-.664.132-.145.207-.22.253-.235l.015-.003zm-6.43 1.476-1.202.885.187.52.523-.317.803 2.235-.696.25c.045.144.216.641.238.663l2.166-.779-.238-.662-.687.247-1.093-3.042m-3.578 1.33c-.283 0-.56.077-.8.223-.73.448-.85 1.382-.332 2.558.337.776.873 1.218 1.462 1.215 1.345-.007 1.86-1.399 1.086-2.95-.307-.66-.838-1.036-1.416-1.046m-.19.672c.167-.009.357.085.54.28.143.153.345.51.436.786.35.998.164 1.688-.415 1.546-.6-.14-1.244-2.072-.835-2.485a.4.4 0 0 1 .273-.127m-3.516.616-1.204.885.187.52.524-.317.803 2.234-.697.25c.045.145.216.642.238.664l2.166-.779-.238-.663-.687.248z"/></g><defs><clipPath id="a"><path fill="#fff" d="M0 0h24v24H0z"/></clipPath></defs></svg>
